X:1
T:Le Lai de la Fonteinne
T:Guillaume de Machaut (c. 1300-1377)
T:Le Lai de la Fonteinne
T:Copyright © 
T:Copyright © 
T:Copyright © 
T:Copyright © 
T:Copyright © 
T:Copyright © 
T:Copyright © 
T:Copyright © 
T:Copyright © 
T:Copyright © 
T:Copyright © 
T:Copyright © 
T:Copyright © 
T:Copyright © 
T:Copyright © 
T:Copyright © 
T:Copyright © 
T:Copyright © 
T:Copyright © 
T:Copyright © 
T:Copyright © 
C:Guillaume de Machaut (c. 1300-1377)
Z:Copyright ©
%%score [ 1 2 3 ]
L:1/8
M:6/8
K:F
V:1 treble nm="P1"
V:2 treble nm="II"
V:3 treble nm="III"
V:1
|:"^1b.""^1a." C3 D _E2 | D3 D C2 | =B,3 z3 | (C>"^§"=B,C/A,/"^§" B,) C2 | D3 (F _E2) | D3 C2 z | %6
w: Je ne ces-|se de pri-|er|A _ _ _ _ ma|da- me _|chie- re|
w: S'en veil u-|ne\_au- tre\_a- coin-|tier|Qui _ _ _ _ joi-|e ple- *|nie- re|
 G3 (A3/2GF/) | A2 B A G2 | ^F3 G(A/G/"^§"=F/G/) | (_E>FE/F/) D(G/F"^b"E/) | D3 z3 | %11
w: Que mes _ _|maus veil- le\_a- li-|gier. Mais si _ _ _|se _ _ _ tient chie- * *|re|
w: M'o- tri- * *|e- ra de li-|gier Et a _ _ _|bon- * * * ne chie- * *|re,|
 A, =B,2 C>"^§"ED/E/ | CC z (DEF | G/FE/D/E/) C3 | A3/2(GF/) G3 | z3 A3/2GF/ | %16
w: Et tant la truis du- re\_et|fie- re, Sans _ _|_ _ _ _ _ a-|mol- li- * ier,|Qu'a- dou- cir|
w: Sans fin, sans a- mour le-|gie- re, Sans _ _|_ _ _ _ _ a-|me- nui- * sier;|Ne joy- e|
"^Edited from the text and music in Patricia A. Turcic, \"Words and Music in Communion: An Analysis of Guillaume de Machaut's 'Le Lay de la Fonteinne' in Cultural Context\" (M.A. diss., University of Maine, 2001), https://digitalcommons.library.umaine.edu/etd/486/. Transposed up a perfect fourth. Barring and beaming editorial; some details of musica ficta, text underlay, etc. adjusted. Editorial and cautionary accidentals in small type.""^Copyright © 2018 Raymond Nagem. Distributed under the terms of the CPDL license (http://cpdl.org). This edition may be freely duplicated, distributed, performed and recorded." AA/G/A/F/ (E/F/)(GF) | %17
w: de ma pri- e- re Ne _ puis _|
w: qu'a li s'af- fie- re Ne _ puet _|
 E D2 C3 :|"^Chace" z6 | z6 | z6 | z6 | z6 | z6 |:"^2a.""^2b." G3 C3 | (_E>FE/F/) (A/G/F/"^b"E/D) | %26
w: son dan- gier.|||||||Et ou|por- * * * roit _ _ _ _|
w: homs tri- er.|||||||Mais a-|me _ _ _ ne _ _ _ _|
 C =B,2 C3 | z =BB c/"^b"_B/A/B/G | z (G2 D)zF | z ED C3 | E/DEF/ z GG | C C2 A(A z | G)zF (G3 | %33
w: on que- rir|La joi- e qui a- men- rir|Ne _ puet|ne fi- ner|Et qui ne fait que dou-|bler En joi- eus|* plai- sir?|
w: puet pe- rir|M'a dam- pna- ti- on ve- nir|Qui _ son|temps u- ser|En li ser- vir et lo-|er Vuet sans re-|* pen- tir;|
 C z2 C) z2 | c(d/c/B/c/) z AA | (=BAB) c c2 | (c>"^b"BA/B/) G3/2EF/ | G3 z DC | D/FED/ C3 | %39
w: _|Tout li _ _ _ mon- des,|sans _ _ men- tir,|N'en _ _ _ por- roit fi-|ner, Sans la|da- me qui n'a per|
w: _|Car qui _ _ _ siens, sans|re- * * tol- lir,|Vuet _ _ _ tous de- mou-|rer, En gloi-|re l'es- tuet re- gner|
 z3 (c>BA/B/ | G2 B) (A3/2GF/) | E D2 !fermata!G3 ::"^3a.""^3b." (G/F/E/F/D) z (C"^§"=B,) | %43
w: A- * * *|* * mer _ _|et chie- rir.|C'est _ _ _ _ cel- *|
w: Qui _ _ _|_ _ ne _ _|puet fail- lir.|Mais _ _ _ _ n'i _|
 CED C(D/C"^§"=B,/) | C3 C z z |[M:3/8] CDE |[M:6/8] ^F F2 G(A/G"^#"F/) | G3 G z z | %48
w: le qui par or- don- * *|nan- ce|De pa- ro-|le\_et par la puis- * *|san- ce|
w: ha point de dif- fe- * *|ren- ce,|Car cil trois|font tou- te\_u- ne\_es- * *|san- ce,|
 A3 B(B/c/B/c/) | A2 B A(B/A/B/G/) | (A/G/"^#"^F/G/E)"^#" F z2 | D3 E2 G | %52
w: D'Es- pe- rit _ _ _|Saint, qui ou- vra _ _ _|en _ _ _ _ ce,|Et par de-|
w: U- ne ver- * * *|tus, u- ne sub- * * *|stan- * * * * ce,|Un po- oïr,|
"^#" (^F/G/) A2 E(G/"^#"FE/) | G3 G z2 |[M:3/8] CDE |[M:6/8] (C/D/) E2 (A/G/) (F/E/F/D/) | %56
w: vi- * ne pour- vë- * *|an- ce|Faite au com-|man- * de- ment _ dou _ _ _|
w: u- * ne sa- pi- * *|en- ce:|Ci ha trop|mer- * vil- leus _ mi- * * *|
 E3 E z2 | (G/F/E/F/D) z (C"^§"=B,) | CED C(D/C"^§"=B,/) | C3 C z z |[M:3/8] CDE | %61
w: Pe- re,|Con- * * * * çut _|vier- ge, sans vi- o- * *|len- ce,|Por- ta vier-|
w: ste- re.|Et _ _ _ _ si _|n'en fais nul- le doub- * *|tan- ce,|Car c'est ma|
[M:6/8] ^F F2 G(A/G"^#"F/) | G3 G z z | A3 B(B/c/B/c/) | A2 B A(B/A/B/G/) | (A/G/"^#"^F/G/E) F z2 | %66
w: ge, sans des- plai- * *|san- ce,|En- fan- ta _ _ _|vier- ge, sans gre- * * *|van- * * * * ce,|
w: foy, c'est ma crë- * *|an- ce,|C'est ma vie _ _ _|et ma sou- ste- * * *|nan- * * * * ce,|
 D3 E2 G |"^#" (^F/G/) A2 E(G/"^#"FE/) | G3 G z2 |[M:3/8] CDE |[M:6/8] (C/D/) E2 (A/G/)(F/E/F/D/) | %71
w: Li Fil Dieu|qui _ prist no sem- * *|blan- ce|Pour nous tous|get- * ter de _ mi- * * *|
w: Par cel- le|qui _ par ex- cel- * *|lan- ce|Est fil- le\_au|Pere _ et dou _ Fil _ _ _|
 C3 C z2 :|[M:6/8]"^Chace" z6 | z6 | z6 | z6 | z6 | z6 |:"^4a.""^4b." (c3 z =B2 | z A2) z GE | %80
w: se- re.|||||||Ces *|* trois un|
w: me- re.|||||||He! *|* ro- ÿ-|
 FGA G/F/E/F/D/E/ | C3 Ez/(D/E) | Fz/(E/F) Gz/(A/"^§"=B) | (A3/2GF/) G3 | G/A(GF/) z/ E/(Gz/G/ | %85
w: a po de pein- ne, As- sez prou- ver|puis: Con- si- *|de- re\_u- * ne fon- *|tein- * * ne,|Le ruis- sel, _ la duis; *|
w: ne sou- ve- rein- ne, Qui seur tou- tes|luis Plus cler _|que la _ tres- mon- *|tein- * * ne,|Es ob- scu- * res nuis, *|
 z/ D/E)z/D/ z/ (C/C)z/G/ | F(F/E/)(D/E/) C3 | z3 (G2 z | A2) z cc z | Bcd (c>BA/B/) | G C2 czd | %91
w: * * Ce sont _ trois,|mais ces _ trois _ truis|Tout|* un, soit|pe- ti- te\_ou plein- * * *|ne, Soit par pin-|
w: * * Aus- si _ l'eau-|e\_et li _ dous _ fruis|De|* vi- e|prist char hu- mein- * * *|ne Et four- me\_en|
 dzA czB | d/c=BA/ G3 | E/F/GG z/ (C/E)z/G/ | z/ (D/Cz/D/ z/ (G/G))z/G/ | F/G/FF !fermata!C3 :: %96
w: tes ou par muis:|Par tous ces con- duis|Est eau- e d'un goust _ cer-|tein- * * * * ne;|Tous se- urs en suis.|
w: tes cos- tes vuis.|S'est bien hors d'a- nuis|Et de for- tu- ne _ mon-|dein- * * * * ne|Cils que tu con- duis.|
"^5a.""^5b." EFG A(A/G/F/G/) | E(G/FE/) G2 z | d(c/d/)(B/c/) A2 G | A(B/A/G/A/) ^F3 | DDE ^F G2 | %101
w: Et qui de ces- te\_eau- * * *|e pren- * * droit|Et la _ met- * troit par|un temps _ _ _ froit|En un vais- sel, el-|
w: L'eau- e de vi- e\_ein- * * *|si ve- * * noit|Et des- * cen- * doit en|tes flans _ _ _ droit,|Que Sains Es- pe- ris|
 A(E/"^#"^F/G/A/) G2 z | (G/A/)Bc d2 c | (d/c/)(B/AG/) A z (c/B/) | A(B/AG/) A2 G | %105
w: le pren- * * * droit|Et _ ja- le- roit, si|qu'on _ fer- * * oit De _|la gla- * * ce\_u- ne\_y-|
w: a- men- * * * oit|Et _ con- dui- soit, dont|il _ for- * * moit Le _|bel, le _ _ bon, le|
 (G/"^#"^F/G/E/"^#"F/G/) A3 | E"^§"FG A(A/G/F/G/) | E(G/FE/) G2 z | d(c/d/)(B/c/) A2 G | %109
w: ma * * * * * ge;|Mais ja son goust n'en _ _ _|per- de- * * roit|Ne mu- * e- * roit, qu'a-|
w: sa- * * * * * ge,|Qui Fils de Dieu le _ _ _|Pe- re\_es- * * toit,|Qui con- * sen- * toit et|
 A(B/A/G/A/) ^F3 | DDE ^F G2 | A(E/"^#"^F/G/A/) G2 z | (G/A/)Bc d2 c | (d/c/)(B/AG/) A z (c/B/) | %114
w: dès se- * * * roit|Eau- e\_et na- tu- re|d'eau- e\_a- * * * roit.|Chas- * cuns le voit et|a- * per- * * çoit Par _|
w: qui vo- * * * loit|Que four- me\_et char hu-|mein- ne\_a- * * * roit.|Et _ qu'il mor- roit et|get- * te- * * roit D'en- *|
 A(B/AG/) A2 G | (G/"^#"^F/G/"^#"F/E/"^#"F/) G3 :|"^Chace" z6 | z6 | z6 | z6 | z6 | z6 |: %122
w: le temps _ _ y- ver-|na- * * * * * ge.|||||||
w: fer l'u- * * mein li-|gna- * * * * * ge.|||||||
"^6a.""^6b." A2 G (G^F/E/F) | (G>AG/A/) (B>cB/c/) | (e/d/c/B/A) G3 |"^#" ^F/G/AB (A3 | %126
w: Mais ce- ste _ _ _|Tri- * * * ni- * * *|té _ _ _ _ Est|en é- ter- ni- té,|
w: Qui par dou- * * *|ce _ _ _ pi- * * *|té, _ _ _ _ Par|vraie hu- mi- li- té,|
 z/ B/AG) z/ G/FE | D F2 G3 | z3 ^c3 | d"^#"(^cz/d/) G(Fz/G/) | A3 G C2 | D3 E(G/"^#"^FE/) | %132
w: * * * En pos- si-|bi- li- té,|Et|en tou- * te\_au- tre *|cho- se, En|sens, en qua- * *|
w: * * * Nous ha tous|res- pi- té,|Quant|en toy, * dou- ce *|ro- se, Prist|no- stre\_hu- ma- * *|
 z/ (GA/)B z/ dB/c | d(cB) c2 z | (d3/2cB/) A3 | z (AG z FE) | D(F/E/D/E/) C3 | z3 (D3 | %138
w: li- * té, En gloi- re,\_en|vé- ri- * té,|U- * * ne|seu- * * *|le\_u- ni- * * * té|En|
w: ni- * té, Li Fils par|a- mi- * té.|Ce _ _ nous|ha _ _ _|tous get- * * * té,|Dont|
 EzG) (Dz/F/)G | A3/2GF/ !fermata!G3 ::"^7a.""^7b." (G2 F G/F_E/)E | (A/G/F/"^b"_E/)D C(=B,C) | %142
w: _ _ Dieu * le|Pè- re\_en- clo- se.|De _ _ _ _ la|duis _ _ _ le Pe- re _|
w: _ _ Sa- * thans|ne re- po- se.|Mais _ _ _ _ mieus|vor- * * * roit e- stre\_a *|
 DD z (A/G/F/"^b"_E/)D | C(D/C/B,/C/) A,(C/=B,A,/) | C3 z3 |[M:3/8] c c2 | %146
w: nom- me, De _ _ _ la|fon- tein- * * * ne le _ _|Fil|Qui vient|
w: Rom- me Ou _ _ _ ou-|tre mer _ _ _ en es- * *|sil|Ou ge-|
[M:6/8] (c/B/A/B/)G A(G^F) | GG z (A/B/c)A | (c/B/A/B/)G F(A/G/F/"^b"_E/) | D z z"^b" _E D2 | %150
w: dou _ _ _ Pe- re\_et fu _|hom- me, Dou _ _ ruis-|sel _ _ _ cler et gen- * * *|til Saint E-|
w: tés _ _ _ de- dens la _|Som- me, En _ _ flun|Jour- * * * dain ou en _ _ _|Nil Que croi-|
"^b" _E C2 D"^b"(E/DC/) | D"^§"=B, z (C/D/) E2 | F G2 B(A/GF/) | G2 z (c/B/A/B/)G | %154
w: spe- rit; c'est la _ _|som- me. Dou _ Pere|et dou Fil vient _ _|il. Ces _ _ _ siz|
w: re riens que preu- * *|dom- me Ne _ puist|croi- re sans pe- * *|ril; Car _ _ _ tout|
 F(_EF) G(A/G/F/"^b"E/) | DD z (A/G/F/"^b"_E/)D | C(D/C/B,/C/) A,(C/=B,A,/) |[M:3/8] C3 :| %158
w: sont trois, _ qui bien _ _ _|som- me A _ _ _ en-|ten- de- * * * ment sou- * *|til.|
w: vaut il _ u- ne _ _ _|pom- me Sans _ _ _ Dieu?|Je di _ _ _ que nen- * *|nil.|
[M:6/8]"^Chace" z6 | z6 | z6 | z6 | z6 | z6 |:"^8a.""^8b." (d2 c) A"^§"(=B/AG/) | %165
w: ||||||Et _ pour ce _ _|
w: ||||||Ou _ cha- scuns _ _|
"^§" =BA"^§"B czd | z/ (c/"^b"B)A G(G/FE/) | (D =B,2) C3 | D/FED/ z (CG) | A/AGF/ G3 | %170
w: di que cil troy De|no _ foy Te fi- * *|rent _ droit|fon- de- ment, Quant li _|Filz se mist en toy.|
w: boit qui ha soy, Sans|a- * noy; Et qui _ _|par- * du-|ra- ble- ment Vuet vi- *|vre\_a- veuc le grant roy|
 z3 (d/c"^§"=B/A/"^§"B/) | G (^F2 z/ G/)z/G/C | A,/B,/CD C3 | z dd G3 | %174
w: Car _ _ _ _|j'en voy * Par- fait|le Vieil Te- sta- ment|Et fait le|
w: La- * * * *|ve soy * En ruis-|sel qui en de- scent.|C'est ta gra-|
 G(d/c/)(c/"^§"=B/) (c3/2"^b"_Bc/) | d3/2(c"^§"=B/) (c>"^b"_BA/B/) | (G/FE/D/E/) C3 | %177
w: Saint Sa- * cre- * ment. _ _|Ce m'a- * prent _ _ _|Que _ _ _ _ la|
w: ce vrai- * e- * ment _ _|Qui s'e- * stent _ _ _|A _ _ _ _ tous|
 E D2 C2 F/G/ | AEF G3 | A(A/G/)(A/F/) E(G/F/)(E/D/) | z (C"^§"=B,) z/ (C/z/D/E) | %181
w: duis de no- stre loy|Y\_es et de no|sau- ve- * ment _ Pro- pre- * ment _|la _ fon- * *|
w: ceus qui en re- coy|Pleu- rent et plain-|gnent sou- * vent _ Ten- dre- * ment _|de _ leurs * *|
 G/F/ED !fermata!C3 ::"^9b.""^9a." c3 =B(B/AG/) |[M:3/8] A2 z |[M:6/8] G A2 G F2 |[M:3/8] G2 z | %186
w: tein- ne\_ein- si le croy,|Pour ce te _ _|pri,|Vier- ge,\_oÿ mon de-|pri,|
w: pe- chiés le des- roy.|M'a- me t'o- * *|tri|Et doing sans de-|tri,|
[M:6/8] d"^b"ed dc=B | A(d/c/"^§"=B/A/) G(^FG) |[M:3/8] A3 |[M:6/8] c3 =B(B/AG/) |[M:3/8] A2 z | %191
w: Car po cri, Po des- cri,|Po pleur _ _ _ les pe- *|chiés|Qui sont en _ _|mi,|
w: Et te tri. Seur tout tri.|Or soy- * * * és mes _|chiés|Et a- veuc _ _|mi|
[M:6/8] G A2 G F2 |[M:3/8] G2 z |[M:6/8] d"^b"ed dc=B | A(d/c/"^§"=B/A/) G(G/^FE/) |[M:3/8] G3 :| %196
w: Vieil et en- dor-|mi.|S'en fre- mi, Car em- mi|Mon cuer _ _ _ sont fi- * *|chiés.|
w: Con- tre l'a- ne-|mi,|Car a- mi Ne de- mi|N'ay en _ _ _ mes mes- * *|chiés.|
[M:6/8]"^Chace" z6 | z6 | z6 | z6 | z6 | z6 |:"^10a.""^10b." E3 (G^F/E/F) | G A2 G3/2DF/ | %204
w: ||||||Mais de _ _ _|tel con- fort Com de|
w: ||||||Las! or _ _ _|sui au port De tout|
 E D2 C3 | G3/2FG/ AA z | z FF z2 A | G ^F2 G3 | C3 z2 D | C z2 (ED)z/(D/ | C) =B,2 C3 | %211
w: plou- rer fort|Pe- tit me con- fort,|Vier- ge, se|ne me fais|fort Qu'a-|pai- se- * ras|_ l'i- re|
w: des- con- fort,|Quant mes maus re- cort;|Et si fort|me des- con-|\-~fort Que|ne le _ puis|_ di- re,|
 c3 z/ (Ac/)=B | z/ (c=B/)A z/ (GA/)A | c d2 (c>BA/B/) | G3 =BA z | z Ac z2 (A | G) G2 C3- | %217
w: De ton _ Fil,|qu'au _ fort Homs _ n'a|si grant tort _ _ _|Qui n'en soit|res- sort, Quar|_ a toy|
w: Car pe- * chiés|me _ mort; A- * ne-|mies ne dort, _ _ _|Eins fait son|ef- fort Qu'en|_ li- vre|
 C z2 =B,CD | C(F/ED/) C D2 | E E2 !fermata!G3 ::"^11a.""^11b." A3 B3 | A2 G G(^FG) | %222
w: _ vi- e ne|mort Ne _ _ scet e-|scon- di- re.|He! fon-|tein- ne de con- *|
w: _ de mort, moy|mort, Me _ _ puist fai-|re\_e- scri- re.|Fais tant|que de li m'e- *|
 (AB/AG/) A2 z | d3 ^c3 | (d"^§"c)B A2 G | (A/G/"^#"F/G/E) ^F z2 |[M:3/8] G A2 | %227
w: cor- * * * de,|La duis|de _ mi- se- ri-|cor- * * * * de,|Ruis- saus|
w: stor- * * * de;|Car il|n'a _ mai- son ne|bor- * * * * de|Qui vils,|
[M:6/8] B2 A G(FG) | (A/GF/E/F/) D2 z | d ^c2 (d"^§"=c)B | A G2 ^F z G | A B2 A3 | A3 B3 | %233
w: qui le- ve\_e- con- *|cor- * * * * de|Meins pe- cheurs, _ fluns|de dou- çour, Oÿ|ma cla- mour:|Fais que|
w: sa- le,\_ob- scu- re\et _|or- * * * * de|Ne soit, plein- * ne|de pu- our Et|de lai- dour,|Et mes|
 A2 G G(^FG) | (AB/AG/) A2 z | d3 ^c3 | (d"^§"c)B A2 G | (A/G/"^#"F/G/E) ^F z2 |[M:3/8] G A2 | %239
w: pe- chiés ne me _|mor- * * * de,|Si qu'a-|ne- * mis ne m'en-|cor- * * * * de|De ses|
w: cuers vuet et t'a- *|cor- * * * de|Que ton|dous _ sa- lut re-|cor- * * * * de,|Tant que|
[M:6/8] B2 A G(FG) | (A/GF/E/F/) D2 z | d ^c2 (d"^§"=c)B | A G2 ^F z G | E"^#" ^F2 G3 :| %244
w: craus et de sa _|cor- * * * * de,|Car en toy _ sont|tuit mi tour Et|mi re- tour.|
w: de li nais- se\et _|sor- * * * * de|U- ne fon- * tein-|ne de plour Et|de tri- stour,|
"^Chace" z6 | z6 | z6 | z6 | z6 | z6 |:"^12a.""^12b." G3 A B2 | A3 A G2 | ^F3 z3 | %253
w: ||||||Pour la- ver|et net- toi-|er|
w: ||||||En- cor te|vueil sup- pli-|er|
 (G>"^#"^FG/E/"^#" F) G2 | A3 (c B2) | A3 G2 z | d3 (e3/2dc/) | e2 f e d2 | ^c3 d(e/d/"^§"c/d/) | %259
w: En _ _ _ _ tel-|le ma- *|nie- re|Les vi- * *|ces qui de pe-|chier Me don- * * *|
w: Ro- * * * * ÿ-|ne\_et lu- *|mie- re|Des an- * *|gles, qu'a ton Fil|chier Ta dou- * * *|
"^§" (=B>c"^§"B/c/) A(d/c"^§"B/) | A3 z3 | E"^#" ^F2 G>"^§"=BA/"^§"B/ | GG z (A=Bc | %263
w: nent _ _ _ ma- tie- * *|re.|Vier- ge, que ta grace ac-|quie- re, Si _ _|
w: ceur _ _ _ re- qui- * *|re|Que son i- re ne nous|fie- re Au _ _|
 d/c"^§"=B/A/"^§"B/) G3 | e3/2(d"^#"^c/) d3 | z3 e3/2dc/ | ee/d/e/c/ (=B/c/)(dc) | %267
w: _ _ _ _ _ que|tre- bu- * chier|Ne me puist|en sa chau- die- re Sa- * thans _|
w: _ _ _ _ _ jour|dar- re- * nier,|Et la joi-|e qu'est en- tie- re Nous _ vueil- *|
 =B A2 !fermata!G3 :| %268
w: n'ac- cro- chier.|
w: le\_ot- troi- er.|
V:2
|: z6 | z6 | z6 | z6 | z6 | z6 | z6 | z6 | z6 | z6 | z6 | z6 | z6 | z6 | z6 | z6 | z6 | z6 :| z6 | %19
w: |||||||||||||||||||
w: |||||||||||||||||||
 z6 | z6 |"^2a." G3 C3 | (_E>FE/F/) (A/G/F/"^b"E/D) | C =B,2 C3 |: z =BB c/"^b"_B/A/B/G | %25
w: ||Et ou|por- * * * roit _ _ _ _|on que- rir|La joi- e qui a- men- rir|
w: |||||M'a dam- pna- ti- on ve- nir|
 z (G2 D)zF | z ED C3 | E/DEF/ z GG | C C2 A(A z | G)zF (G3 | C z2 C) z2 | c(d/c/B/c/) z AA | %32
w: Ne _ puet|ne fi- ner|Et qui ne fait que dou-|bler En joi- eus|* plai- sir?|_|Tout li _ _ _ mon- des,|
w: Qui _ son|temps u- ser|En li ser- vir et lo-|er Vuet sans re-|* pen- tir;|_|Car qui _ _ _ siens, sans|
 (=BAB) c c2 | (c>"^b"BA/B/) G3/2EF/ | G3 z DC | D/FED/ C3 | z3 (c>BA/B/ | G2 B) (A3/2GF/) | %38
w: sans _ _ men- tir,|N'en _ _ _ por- roit fi-|ner, Sans la|da- me qui n'a per|A- * * *|* * mer _ _|
w: re- * * tol- lir,|Vuet _ _ _ tous de- mou-|rer, En gloi-|re l'es- tuet re- gner|Qui _ _ _|_ _ ne _ _|
 E D2 !fermata!G3 |"^2b." G3 C3 | (_E>FE/F/) (A/G/F/"^b"E/D) | C =B,2 C3 :: z6 | z6 | z6 | %45
w: et chie- rir.|Mais a-|me _ _ _ ne _ _ _ _|puet pe- rir||||
w: puet fail- lir.|||||||
[M:3/8] z3 |[M:6/8] z6 | z6 | z6 | z6 | z6 | z6 | z6 | z6 |[M:3/8] z3 |[M:6/8] z6 | z6 | z6 | z6 | %59
w: ||||||||||||||
w: ||||||||||||||
 z6 |[M:3/8] z3 |[M:6/8] z6 | z6 | z6 | z6 | z6 | z6 | z6 | z6 |[M:3/8] z3 |[M:6/8] z6 | z6 :| %72
w: |||||||||||||
w: |||||||||||||
[M:6/8] z6 | z6 | z6 |"^4a." (c3 z =B2 | z A2) z GE | FGA G/F/E/F/D/E/ |: C3 Ez/(D/E) | %79
w: |||Ces *|* trois un|a po de pein- ne, As- sez prou- ver|puis: Con- si- *|
w: ||||||luis Plus cler _|
 Fz/(E/F) Gz/(A/"^§"=B) | (A3/2GF/) G3 | G/A(GF/) z/ E/(Gz/G/ | z/ D/E)z/D/ z/ (C/C)z/G/ | %83
w: de- re\_u- * ne fon- *|tein- * * ne,|Le ruis- sel, _ la duis; *|* * Ce sont _ trois,|
w: que la _ tres- mon- *|tein- * * ne,|Es ob- scu- * res nuis, *|* * Aus- si _ l'eau-|
 F(F/E/)(D/E/) C3 | z3 (G2 z | A2) z cc z | Bcd (c>BA/B/) | G C2 czd | dzA czB | d/c=BA/ G3 | %90
w: mais ces _ trois _ truis|Tout|* un, soit|pe- ti- te\_ou plein- * * *|ne, Soit par pin-|tes ou par muis:|Par tous ces con- duis|
w: e\_et li _ dous _ fruis|De|* vi- e|prist char hu- mein- * * *|ne Et four- me\_en|tes cos- tes vuis.|S'est bien hors d'a- nuis|
 E/F/GG z/ (C/E)z/G/ | z/ (D/Cz/D/ z/ (G/G))z/G/ | F/G/FF !fermata!C3 |"^4b." (c3 z =B2 | %94
w: Est eau- e d'un goust _ cer-|tein- * * * * ne;|Tous se- urs en suis.|He! *|
w: Et de for- tu- ne _ mon-|dein- * * * * ne|Cils que tu con- duis.||
 z A2) z GE | FGA G/F/E/F/D/E/ :: z6 | z6 | z6 | z6 | z6 | z6 | z6 | z6 | z6 | z6 | z6 | z6 | z6 | %109
w: * ro- ÿ-|ne sou- ve- rein- ne, Qui seur tou- tes||||||||||||||
w: |||||||||||||||
 z6 | z6 | z6 | z6 | z6 | z6 | z6 :| z6 | z6 | z6 |"^6a." A2 G (G^F/E/F) | (G>AG/A/) (B>cB/c/) | %121
w: ||||||||||Mais ce- ste _ _ _|Tri- * * * ni- * * *|
w: ||||||||||||
 (e/d/c/B/A) G3 |:"^#" ^F/G/AB (A3 | z/ B/AG) z/ G/FE | D F2 G3 | z3 ^c3 | d"^#"(^cz/d/) G(Fz/G/) | %127
w: té _ _ _ _ Est|en é- ter- ni- té,|* * * En pos- si-|bi- li- té,|Et|en tou- * te\_au- tre *|
w: |vraie hu- mi- li- té,|* * * Nous ha tous|res- pi- té,|Quant|en toy, * dou- ce *|
 A3 G C2 | D3 E(G/"^#"^FE/) | z/ (GA/)B z/ dB/c | d(cB) c2 z | (d3/2cB/) A3 | z (AG z FE) | %133
w: cho- se, En|sens, en qua- * *|li- * té, En gloi- re,\_en|vé- ri- * té,|U- * * ne|seu- * * *|
w: ro- se, Prist|no- stre\_hu- ma- * *|ni- * té, Li Fils par|a- mi- * té.|Ce _ _ nous|ha _ _ _|
 D(F/E/D/E/) C3 | z3 (D3 | EzG) (Dz/F/)G | A3/2GF/ !fermata!G3 |"^6b." A2 G (G^F/E/F) | %138
w: le\_u- ni- * * * té|En|_ _ Dieu * le|Pè- re\_en- clo- se.|Qui par dou- * * *|
w: tous get- * * * té,|Dont|_ _ Sa- * thans|ne re- po- se.||
 (G>AG/A/) (B>cB/c/) | (e/d/c/B/A) G3 :: z6 | z6 | z6 | z6 | z6 |[M:3/8] z3 |[M:6/8] z6 | z6 | z6 | %149
w: ce _ _ _ pi- * * *|té, _ _ _ _ Par||||||||||
w: |||||||||||
 z6 | z6 | z6 | z6 | z6 | z6 | z6 | z6 |[M:3/8] z3 :|[M:6/8] z6 | z6 | z6 | %161
w: ||||||||||||
w: ||||||||||||
"^8a." (d2 c) A"^§"(=B/AG/) |"^§" =BA"^§"B czd | z/ (c/"^b"B)A G(G/FE/) |: (D =B,2) C3 | %165
w: Et _ pour ce _ _|di que cil troy De|no _ foy Te fi- * *|rent _ droit|
w: |||par- * du-|
 D/FED/ z (CG) | A/AGF/ G3 | z3 (d/c"^§"=B/A/"^§"B/) | G (^F2 z/ G/)z/G/C | A,/B,/CD C3 | z dd G3 | %171
w: fon- de- ment, Quant li _|Filz se mist en toy.|Car _ _ _ _|j'en voy * Par- fait|le Vieil Te- sta- ment|Et fait le|
w: ra- ble- ment Vuet vi- *|vre\_a- veuc le grant roy|La- * * * *|ve soy * En ruis-|sel qui en de- scent.|C'est ta gra-|
 G(d/c/)(c/"^§"=B/) (c3/2"^b"_Bc/) | d3/2(c"^§"=B/) (c>"^b"_BA/B/) | (G/FE/D/E/) C3 | %174
w: Saint Sa- * cre- * ment. _ _|Ce m'a- * prent _ _ _|Que _ _ _ _ la|
w: ce vrai- * e- * ment _ _|Qui s'e- * stent _ _ _|A _ _ _ _ tous|
 E D2 C2 F/G/ | AEF G3 | A(A/G/)(A/F/) E(G/F/)(E/D/) | z (C"^§"=B,) z/ (C/z/D/E) | %178
w: duis de no- stre loy|Y\_es et de no|sau- ve- * ment _ Pro- pre- * ment _|la _ fon- * *|
w: ceus qui en re- coy|Pleu- rent et plain-|gnent sou- * vent _ Ten- dre- * ment _|de _ leurs * *|
 G/F/ED !fermata!C3 |"^8b." (d2 c) A"^§"(=B/AG/) |"^§" =BA"^§"B czc | z/ (c/"^b"B)A G(G/FE/) :: %182
w: tein- ne\_ein- si le croy,|Ou _ cha- scuns _ _|boit que ha soy, Sans|a- * noy; Et qui _ _|
w: pe- chiés le des- roy.||||
 z6 |[M:3/8] z3 |[M:6/8] z6 |[M:3/8] z3 |[M:6/8] z6 | z6 |[M:3/8] z3 |[M:6/8] z6 |[M:3/8] z3 | %191
w: |||||||||
w: |||||||||
[M:6/8] z6 |[M:3/8] z3 |[M:6/8] z6 | z6 |[M:3/8] z3 :|[M:6/8] z6 | z6 | z6 |"^10a." E3 (G^F/E/F) | %200
w: ||||||||Mais de _ _ _|
w: |||||||||
 G A2 G3/2DF/ | E D2 C3 |: G3/2FG/ AA z | z FF z2 A | G ^F2 G3 | C3 z2 D | C z2 (ED)z/(D/ | %207
w: tel con- fort Com de|plou- rer fort|Pe- tit me con- fort,|Vier- ge, se|ne me fais|fort Qu'a-|pai- se- * ras|
w: ||Quant mes maus re- cort;|Et si fort|me des- con-|\-~fort Que|ne le _ puis|
 C) =B,2 C3 | c3 z/ (Ac/)=B | z/ (c=B/)A z/ (GA/)A | c d2 (c>BA/B/) | G3 =BA z | z Ac z2 (A | %213
w: _ l'i- re|De ton _ Fil,|qu'au _ fort Homs _ n'a|si grant tort _ _ _|Qui n'en soit|res- sort, Quar|
w: _ di- re,|Car pe- * chiés|me _ mort; A- * ne-|mies ne dort, _ _ _|Eins fait son|ef- fort Qu'en|
 G) G2 C3- | C z2 =B,CD | C(F/ED/) C D2 | E E2 !fermata!G3 |"^10b." E3 (G^F/E/F) | G A2 G3/2DF/ | %219
w: _ a toy|_ vi- e ne|mort Ne _ _ scet e-|scon- di- re.|Las! or _ _ _|sui au port De tout|
w: _ li- vre|_ de mort, moy|mort, Me _ _ puist fai-|re\_e- scri- re.|||
 E D2 C3 :: z6 | z6 | z6 | z6 | z6 | z6 |[M:3/8] z3 |[M:6/8] z6 | z6 | z6 | z6 | z6 | z6 | z6 | %234
w: des- con- fort,|||||||||||||||
w: |||||||||||||||
 z6 | z6 | z6 | z6 |[M:3/8] z3 |[M:6/8] z6 | z6 | z6 | z6 | z6 :| z6 | z6 | z6 |"^12a." G3 A B2 | %248
w: |||||||||||||Pour la- ver|
w: ||||||||||||||
 A3 A G2 | ^F3 z3 |: (G>"^#"^FG/E/"^#" F) G2 | A3 (c B2) | A3 G2 z | d3 (e3/2dc/) | e2 f e d2 | %255
w: et net- toi-|er|En _ _ _ _ tel-|le ma- *|nie- re|Les vi- * *|ces qui de pe-|
w: ||Ro- * * * * ÿ-|ne\_et lu- *|mie- re|Des an- * *|gles, qu'a ton Fil|
 ^c3 d(e/d/"^§"c/d/) |"^§" (=B>c"^§"B/c/) A(d/c"^§"B/) | A3 z3 | E"^#" ^F2 G>"^§"=BA/"^§"B/ | %259
w: chier Me don- * * *|nent _ _ _ ma- tie- * *|re.|Vier- ge, que ta grace ac-|
w: chier Ta dou- * * *|ceur _ _ _ re- qui- * *|re|Que son i- re ne nous|
 GG z (A=Bc | d/c"^§"=B/A/"^§"B/) G3 | e3/2(d"^#"^c/) d3 | z3 e3/2dc/ | ee/d/e/c/ (=B/c/)(dc) | %264
w: quie- re, Si _ _|_ _ _ _ _ que|tre- bu- * chier|Ne me puist|en sa chau- die- re Sa- * thans _|
w: fie- re Au _ _|_ _ _ _ _ jour|dar- re- * nier,|Et la joi-|e qu'est en- tie- re Nous _ vueil- *|
 =B A2 !fermata!G3 |"^12b." G3 A"^b" B2 | A3 A G2 | ^F3 z3 :| %268
w: n'ac- cro- chier.|En- cor te|vueil sup- pli-|er,|
w: le\_ot- troi- er.||||
V:3
|: z6 | z6 | z6 | z6 | z6 | z6 | z6 | z6 | z6 | z6 | z6 | z6 | z6 | z6 | z6 | z6 | z6 | z6 :| %18
w: ||||||||||||||||||
w: ||||||||||||||||||
"^2a." G3 C3 | (_E>FE/F/) (A/G/F/"^b"E/D) | C =B,2 C3 | z =BB c/"^b"_B/A/B/G | z (G2 D)zF | %23
w: Et ou|por- * * * roit _ _ _ _|on que- rir|La joi- e qui a- men- rir|Ne _ puet|
w: |||||
 z ED C3 |: E/DEF/ z GG | C C2 A(A z | G)zF (G3 | C z2 C) z2 | c(d/c/B/c/) z AA | (=BAB) c c2 | %30
w: ne fi- ner|Et qui ne fait que dou-|bler En joi- eus|* plai- sir?|_|Tout li _ _ _ mon- des,|sans _ _ men- tir,|
w: |En li ser- vir et lo-|er Vuet sans re-|* pen- tir;|_|Car qui _ _ _ siens, sans|re- * * tol- lir,|
 (c>"^b"BA/B/) G3/2EF/ | G3 z DC | D/FED/ C3 | z3 (c>BA/B/ | G2 B) (A3/2GF/) | E D2 !fermata!G3 | %36
w: N'en _ _ _ por- roit fi-|ner, Sans la|da- me qui n'a per|A- * * *|* * mer _ _|et chie- rir.|
w: Vuet _ _ _ tous de- mou-|rer, En gloi-|re l'es- tuet re- gner|Qui _ _ _|_ _ ne _ _|puet fail- lir.|
"^2b." G3 C3 | (_E>FE/F/) (A/G/F/"^b"E/D) | C =B,2 C3 | z =BB c/"^b"_B/A/B/G | z (G2 D)zF | %41
w: Mais a-|me _ _ _ ne _ _ _ _|puet pe- rir|M'a dam- pna- ti- on ve- nir|Qui _ son|
w: |||||
 z ED C3 :: z6 | z6 | z6 |[M:3/8] z3 |[M:6/8] z6 | z6 | z6 | z6 | z6 | z6 | z6 | z6 |[M:3/8] z3 | %55
w: temps u- ser||||||||||||||
w: ||||||||||||||
[M:6/8] z6 | z6 | z6 | z6 | z6 |[M:3/8] z3 |[M:6/8] z6 | z6 | z6 | z6 | z6 | z6 | z6 | z6 | %69
w: ||||||||||||||
w: ||||||||||||||
[M:3/8] z3 |[M:6/8] z6 | z6 :|[M:6/8]"^4a." (c3 z =B2 | z A2) z GE | FGA G/F/E/F/D/E/ | %75
w: |||Ces *|* trois un|a po de pein- ne, As- sez prou- ver|
w: ||||||
 C3 Ez/(D/E) | Fz/(E/F) Gz/(A/"^§"=B) | (A3/2GF/) G3 |: G/A(GF/) z/ E/(Gz/G/ | %79
w: puis: Con- si- *|de- re\_u- * ne fon- *|tein- * * ne,|Le ruis- sel, _ la duis; *|
w: |||Es ob- scu- * res nuis, *|
 z/ D/E)z/D/ z/ (C/C)z/G/ | F(F/E/)(D/E/) C3 | z3 (G2 z | A2) z cc z | Bcd (c>BA/B/) | G C2 czd | %85
w: * * Ce sont _ trois,|mais ces _ trois _ truis|Tout|* un, soit|pe- ti- te\_ou plein- * * *|ne, Soit par pin-|
w: * * Aus- si _ l'eau-|e\_et li _ dous _ fruis|De|* vi- e|prist char hu- mein- * * *|ne Et four- me\_en|
 dzA czB | d/c=BA/ G3 | E/F/GG z/ (C/E)z/G/ | z/ (D/Cz/D/ z/ (G/G))z/G/ | F/G/FF !fermata!C3 | %90
w: tes ou par muis:|Par tous ces con- duis|Est eau- e d'un goust _ cer-|tein- * * * * ne;|Tous se- urs en suis.|
w: tes cos- tes vuis.|S'est bien hors d'a- nuis|Et de for- tu- ne _ mon-|dein- * * * * ne|Cils que tu con- duis.|
"^4b." (c3 z =B2 | z A2) z GE | FGA G/F/E/F/D/E/ | C3 Ez/(D/E) | Fz/(E/F) Gz/(A/"^§"=B) | %95
w: He! *|* ro- ÿ-|ne sou- ve- rein- ne, Qui seur tou- tes|luis Plus cler _|que la _ tres- mon- *|
w: |||||
 (A3/2GF/) G3 :: z6 | z6 | z6 | z6 | z6 | z6 | z6 | z6 | z6 | z6 | z6 | z6 | z6 | z6 | z6 | z6 | %112
w: tein- * * ne|||||||||||||||||
w: |||||||||||||||||
 z6 | z6 | z6 | z6 :|"^6a." A2 G (G^F/E/F) | (G>AG/A/) (B>cB/c/) | (e/d/c/B/A) G3 | %119
w: ||||Mais ce- ste _ _ _|Tri- * * * ni- * * *|té _ _ _ _ Est|
w: |||||||
"^#" ^F/G/AB (A3 | z/ B/AG) z/ G/FE | D F2 G3 |: z3 ^c3 | d"^#"(^cz/d/) G(Fz/G/) | A3 G C2 | %125
w: en é- ter- ni- té,|* * * En pos- si-|bi- li- té,|Et|en tou- * te\_au- tre *|cho- se, En|
w: |||Quant|et toy, * dou- ce *|ro- se, Prist|
 D3 E(G/"^#"^FE/) | z/ (GA/)B z/ dB/c | d(cB) c2 z | (d3/2cB/) A3 | z (AG z FE) | D(F/E/D/E/) C3 | %131
w: sens, en qua- * *|li- * té, En gloi- re,\_en|vé- ri- * té,|U- * * ne|seu- * * *|le\_u- ni- * * * té|
w: no- stre\_hu- ma- * *|ni- * té, Li Fils par|a- mi- * té,|Ce _ _ nous|ha _ _ _|tous get- * * * té,|
 z3 (D3 | EzG) (Dz/F/)G | A3/2GF/ !fermata!G3 |"^6b." A2 G (G^F/E/F) | (G>AG/A/) (B>cB/c/) | %136
w: En|_ _ Dieu * le|Pè- re\_en- clo- se.|Qui par dou- * * *|ce _ _ _ pi- * * *|
w: Dont|_ _ Sa- * thans|ne re- po- se.|||
 (e/d/c/B/A) G3 |"^#" ^F/G/AB (A3 | z/ B/AG) z/ G/FE | D F2 G3 :: z6 | z6 | z6 | z6 | z6 | %145
w: té, _ _ _ _ Par|vraie hu- mi- li- té,|* * * Nous ha tous|res- pi- té,||||||
w: |||||||||
[M:3/8] z3 |[M:6/8] z6 | z6 | z6 | z6 | z6 | z6 | z6 | z6 | z6 | z6 | z6 |[M:3/8] z3 :| %158
w: |||||||||||||
w: |||||||||||||
[M:6/8]"^8a." (d2 c) A"^§"(=B/AG/) |"^§" =BA"^§"B czd | z/ (c/"^b"B)A G(G/FE/) | (D =B,2) C3 | %162
w: Et _ pour ce _ _|di que cil troy De|no _ foy Te fi- * *|rent _ droit|
w: ||||
 D/FED/ z (CG) | A/AGF/ G3 |: z3 (d/c"^§"=B/A/"^§"B/) | G (^F2 z/ G/)z/G/C | A,/B,/CD C3 | %167
w: fon- de- ment, Quant li _|Filz se mist en toy.|Car _ _ _ _|j'en voy * Par- fait|le Vieil Te- sta- ment|
w: ||La- * * * *|ve soy * En ruis-|sel qui en de- scent.|
 z dd G3 | G(d/c/)(c/"^§"=B/) (c3/2"^b"_Bc/) | d3/2(c"^§"=B/) (c>"^b"_BA/B/) | (G/FE/D/E/) C3 | %171
w: Et fait le|Saint Sa- * cre- * ment. _ _|Ce m'a- * prent _ _ _|Que _ _ _ _ la|
w: C'est ta gra-|ce vrai- * e- * ment _ _|Qui s'e- * stent _ _ _|A _ _ _ _ tous|
 E D2 C2 F/G/ | AEF G3 | A(A/G/)(A/F/) E(G/F/)(E/D/) | z (C"^§"=B,) z/ (C/z/D/E) | %175
w: duis de no- stre loy|Y\_es et de no|sau- ve- * ment _ Pro- pre- * ment _|la _ fon- * *|
w: ceus qui en re- coy|Pleu- rent et plain-|gnent sou- * vent _ Ten- dre- * ment _|de _ leurs * *|
 G/F/ED !fermata!C3 |"^8b." (d2 c) A"^§"(=B/AG/) |"^§" =BA"^§"B czc | z/ (c/"^b"B)A G(G/FE/) | %179
w: tein- ne\_ein- si le croy,|Ou _ cha- scuns _ _|boit que ha soy, Sans|a- * noy; Et qui _ _|
w: pe- chiés le des- roy.||||
 (D =B,2) C3 | D/"^#"^FED/ z (CG) | A/AGF/ G3 :: z6 |[M:3/8] z3 |[M:6/8] z6 |[M:3/8] z3 | %186
w: par- * du-|ra- ble- ment Vuet vi- *|vre\_a- veuc le grant roy|||||
w: |||||||
[M:6/8] z6 | z6 |[M:3/8] z3 |[M:6/8] z6 |[M:3/8] z3 |[M:6/8] z6 |[M:3/8] z3 |[M:6/8] z6 | z6 | %195
w: |||||||||
w: |||||||||
[M:3/8] z3 :|[M:6/8]"^10a." E3 (G^F/E/F) | G A2 G3/2DF/ | E D2 C3 | G3/2FG/ AA z | z FF z2 A | %201
w: |Mais de _ _ _|tel con- fort Com de|plou- rer fort|Pe- tit me con- fort,|Vier- ge, se|
w: ||||||
 G ^F2 G3 |: C3 z2 D | C z2 (ED)z/(D/ | C) =B,2 C3 | c3 z/ (Ac/)=B | z/ (c=B/)A z/ (GA/)A | %207
w: ne me fais|fort Qu'a-|pai- se- * ras|_ l'i- re|De ton _ Fil,|qu'au _ fort Homs _ n'a|
w: |\-~fort Que|ne le _ puis|_ di- re,|Car pe- * chiés|me _ mort; A- * ne-|
 c d2 (c>BA/B/) | G3 =BA z | z Ac z2 (A | G) G2 C3- | C z2 =B,CD | C(F/ED/) C D2 | %213
w: si grant tort _ _ _|Qui n'en soit|res- sort, Quar|_ a toy|_ vi- e ne|mort Ne _ _ scet e-|
w: mies ne dort, _ _ _|Eins fait son|ef- fort Qu'en|_ li- vre|_ de mort, moy|mort, Me _ _ puist fai-|
 E E2 !fermata!G3 |"^10b." E3 (G^F/E/F) | G A2 G3/2DF/ | E D2 C3 | G3/2FG/ AA z | z FF z2 A | %219
w: scon- di- re.|Las! or _ _ _|sui au port De tout|des- con- fort,|Quant mes maus re- cort;|Et si fort|
w: re\_e- scri- re.||||||
 G ^F2 G3 :: z6 | z6 | z6 | z6 | z6 | z6 |[M:3/8] z3 |[M:6/8] z6 | z6 | z6 | z6 | z6 | z6 | z6 | %234
w: me des- con-|||||||||||||||
w: |||||||||||||||
 z6 | z6 | z6 | z6 |[M:3/8] z3 |[M:6/8] z6 | z6 | z6 | z6 | z6 :|"^12a." G3 A B2 | A3 A G2 | %246
w: ||||||||||Pour la- ver|et net- toi-|
w: ||||||||||||
 ^F3 z3 | (G>"^#"^FG/E/"^#" F) G2 | A3 (c B2) | A3 G2 z |: d3 (e3/2dc/) | e2 f e d2 | %252
w: er|En _ _ _ _ tel-|le ma- *|nie- re|Les vi- * *|ces qui de pe-|
w: ||||Des an- * *|gles, qu'a ton Fil|
 ^c3 d(e/d/"^§"c/d/) |"^§" (=B>c"^§"B/c/) A(d/c"^§"B/) | A3 z3 | E"^#" ^F2 G>"^§"=BA/"^§"B/ | %256
w: chier Me don- * * *|nent _ _ _ ma- tie- * *|re.|Vier- ge, que ta grace ac-|
w: chier Ta dou- * * *|ceur _ _ _ re- qui- * *|re|Que son i- re ne nous|
 GG z (A=Bc | d/c"^§"=B/A/"^§"B/) G3 | e3/2(d"^#"^c/) d3 | z3 e3/2dc/ | ee/d/e/c/ (=B/c/)(dc) | %261
w: quie- re, Si _ _|_ _ _ _ _ que|tre- bu- * chier|Ne me puist|en sa chau- die- re Sa- * thans _|
w: fie- re Au _ _|_ _ _ _ _ jour|dar- re- * nier,|Et la joi-|e qu'est en- tie- re Nous _ vueil- *|
 =B A2 !fermata!G3 |"^12b." G3 A"^b" B2 | A3 A G2 | ^F3 z3 | (G>"^#"^FG/E/"^#" F) G2 | %266
w: n'ac- cro- chier.|En- cor te|vueil sup- pli-|er,|ro- * * * * ÿ-|
w: le\_ot- troi- er.|||||
 A3 c"^b" B2 | A3 G2 z :| %268
w: ne\_et lu- *|mie- re|
w: ||

